X: 1
T: Father Michael MacDonald's Silver Jubilee
M: 4/4
L: 1/8
R: reel
K: Amix
|:e~A3 B2AG|Aaag e3f|g~G3 d2cd|egfa gedB|
e~A3 B2AG|Aaag aged|egfa gedG|1B2A2 A4:|2 B2A2 A3||
|:d|B2A2 A2B/c/d|edeg ageg|d2B2 B2AB|Bdeg edgA|
B2A2 A2Bd|edBd e2fg|egfa gedG|B2A2 A3:|
